X:1
T:St. Andrew of Crete, 11.11.11.11
T:St. Andrew of Crete, 11.11.11.11
T:John Bacchus Dykes, 1868
T:Public Domain Courtesy of the Cyber Hymnal™
C:John Bacchus Dykes, 1868
Z:Public Domain
Z:Courtesy of the Cyber Hymnal™
%%score ( 1 2 ) ( 3 4 )
L:1/8
Q:1/4=115
M:none
K:Eb
V:1 treble 
V:2 treble 
V:3 bass 
V:4 bass 
V:1
 [EG]2 [CG]2 [EG]2 G2 | [CG]2 [=B,G]6 | [=B,G]2 G2 [DG]2 G2 | G8 | [Cc]2 c2 [EB]2 [GB]2 | %5
 A4 [DG]4 | [EG]2 [DG]2 [CE]2 [CF]2 | G6 x2 |[K:C] [CG]2 [Cc]2 [Gd]3 G | [Ge]4 [Ec]4 | %10
 [Ge]2 [Gd]2 [Gc]2 A2 | [DG]8 | [CG]2 [EG]2 [Ec]2 B2 | [Af]4 [Ge]4 | [Ge]2 ([Fd][Ec]) [DB]3 [FB] | %15
 [Ec]8 |] %16
V:2
 x6 (DC) | x8 | x2 (=B,C) x (CB,) x | (C4 D4) | x2 (CD) x4 | (G2 FE) x4 | x8 | (C4 =B,4) | %8
[K:C] x7 G | x8 | x6 (FE) | x8 | x6 (FG) | x8 | x8 | x8 |] %16
V:3
 [C,C]2 [C,E,]2 [C,G,]2 (F,E,) | [D,F,]2 [D,F,]6 | [G,,G,]2 G,2 [F,G,]2 G,2 | ([C,E,]4 [B,,G,]4) | %4
 [A,,A,]2 (E,F,) [E,G,]2 (B,E) | (E2 DC) [G,=B,]4 | [C,C]2 [B,,G,]2 [A,,A,]2 [A,,F,]2 | [G,,D,]8 | %8
[K:C] [C,E,]2 [E,G,]2 [G,B,]3 [B,D] | [CE]4 [C,G,]4 | [CE]2 [G,B,]2 [A,C]2 [A,C]2 | [B,F]8 | %12
 [CE]2 ([CE][B,D]) [A,C]2 ([A,C][G,B,]) | [F,C]4 [C,C]4 | [E,C]2 [F,A,]2 [G,B,]3 G, | [C,G,]8 |] %16
V:4
 x6 C,2 | x8 | x2 (D,E,) x (E,D,) x | x8 | x2 A,,2 x E,2 x | F,4 x4 | x8 | x8 |[K:C] x8 | x8 | x8 | %11
 x8 | x8 | x8 | x7 G, | x8 |] %16

